usr/share/icons/biglinux-icons-material-dark/16/actions/boundingbox_right.svg

<svg width="16" height="16" version="1.1" xmlns="http://www.w3.org/2000/svg" xmlns:xlink="http://www.w3.org/1999/xlink">
 <path d="m9.5 1a0.50005 0.50005 0 0 0-0.5 0.5v3.5h1v-3h1v3h1v-3.5a0.50005 0.50005 0 0 0-0.5-0.5h-2zm-0.5 10v3.5a0.50005 0.50005 0 0 0 0.5 0.5h2a0.50005 0.50005 0 0 0 0.5-0.5v-3.5h-1v3h-1v-3h-1z" color="#000000" fill="#dedede" stroke-linejoin="round" style="-inkscape-stroke:none"/>
 <path d="m10.5 3.5a4.5 4.5 0 0 0-4.5 4.5 4.5 4.5 0 0 0 4.5 4.5 4.5 4.5 0 0 0 4.5-4.5 4.5 4.5 0 0 0-4.5-4.5zm0 2a2.5 2.5 0 0 1 2.5 2.5 2.5 2.5 0 0 1-2.5 2.5 2.5 2.5 0 0 1-2.5-2.5 2.5 2.5 0 0 1 2.5-2.5z" fill="#61a1ff"/>
</svg>

<svg xmlns="http://www.w3.org/2000/svg" width="16" height="16">
<path fill="#dedede" d="M9.5 1a.5.5 0 0 0-.5.5V5h1V2h1v3h1V1.5a.5.5 0 0 0-.5-.5zM9 11v3.5a.5.5 0 0 0 .5.5h2a.5.5 0 0 0 .5-.5V11h-1v3h-1v-3z" color="#000" style="-inkscape-stroke:none"/>
<path fill="#61a1ff" d="M10.5 3.5A4.5 4.5 0 0 0 6 8a4.5 4.5 0 0 0 4.5 4.5A4.5 4.5 0 0 0 15 8a4.5 4.5 0 0 0-4.5-4.5m0 2A2.5 2.5 0 0 1 13 8a2.5 2.5 0 0 1-2.5 2.5A2.5 2.5 0 0 1 8 8a2.5 2.5 0 0 1 2.5-2.5"/>
</svg>
